Newaita-dark/.DP/16/weather-clear-night.svg

<svg xmlns="http://www.w3.org/2000/svg" xmlns:xlink="http://www.w3.org/1999/xlink" width="16px" height="16px" viewBox="0 0 16 16" version="1.1">
<defs>
<radialGradient id="radial0" gradientUnits="userSpaceOnUse" cx="450.908997" cy="189.578995" fx="450.908997" fy="189.578995" r="21.167" gradientTransform="matrix(0,-0.03907,-0.07032,0,22.261999,31.798)">
<stop offset="0" style="stop-color:rgb(0%,0%,0%);stop-opacity:0.314;"/>
<stop offset="0.222" style="stop-color:rgb(0%,0%,0%);stop-opacity:0.275;"/>
<stop offset="1" style="stop-color:rgb(0%,0%,0%);stop-opacity:0;"/>
</radialGradient>
<radialGradient id="radial1" gradientUnits="userSpaceOnUse" cx="450.908997" cy="189.578995" fx="450.908997" fy="189.578995" r="21.167" gradientTransform="matrix(0,0.03907,0.07032,0,-6.385,-3.764)">
<stop offset="0" style="stop-color:rgb(0%,0%,0%);stop-opacity:0.314;"/>
<stop offset="0.222" style="stop-color:rgb(0%,0%,0%);stop-opacity:0.275;"/>
<stop offset="1" style="stop-color:rgb(0%,0%,0%);stop-opacity:0;"/>
</radialGradient>
<radialGradient id="radial2" gradientUnits="userSpaceOnUse" cx="450.908997" cy="189.578995" fx="450.908997" fy="189.578995" r="21.167" gradientTransform="matrix(0,-0.03907,0.07032,0,-6.385,31.798)">
<stop offset="0" style="stop-color:rgb(0%,0%,0%);stop-opacity:0.314;"/>
<stop offset="0.222" style="stop-color:rgb(0%,0%,0%);stop-opacity:0.275;"/>
<stop offset="1" style="stop-color:rgb(0%,0%,0%);stop-opacity:0;"/>
</radialGradient>
<radialGradient id="radial3" gradientUnits="userSpaceOnUse" cx="450.908997" cy="189.578995" fx="450.908997" fy="189.578995" r="21.167" gradientTransform="matrix(0,0.03907,-0.07032,0,22.261999,-3.764)">
<stop offset="0" style="stop-color:rgb(0%,0%,0%);stop-opacity:0.314;"/>
<stop offset="0.222" style="stop-color:rgb(0%,0%,0%);stop-opacity:0.275;"/>
<stop offset="1" style="stop-color:rgb(0%,0%,0%);stop-opacity:0;"/>
</radialGradient>
<linearGradient id="linear0" gradientUnits="userSpaceOnUse" x1="255.322998" y1="233.5" x2="255.322998" y2="254.667007" gradientTransform="matrix(0.00668,0,0,0.03125,6.233,6.72)">
<stop offset="0" style="stop-color:rgb(0%,0%,0%);stop-opacity:0.275;"/>
<stop offset="1" style="stop-color:rgb(0%,0%,0%);stop-opacity:0;"/>
</linearGradient>
<linearGradient id="linear1" gradientUnits="userSpaceOnUse" x1="275.166992" y1="233.5" x2="275.166992" y2="-168.667007" >
<stop offset="0" style="stop-color:rgb(69.01961%,74.509805%,77.254903%);stop-opacity:1;"/>
<stop offset="1" style="stop-color:rgb(81.176472%,84.705883%,86.274511%);stop-opacity:1;"/>
</linearGradient>
</defs>
<g id="surface1">
<path style=" stroke:none;fill-rule:nonzero;fill:url(#radial0);" d="M 9.097656 14.015625 L 10.417969 14.015625 L 10.417969 13.355469 L 9.097656 13.355469 Z M 9.097656 14.015625 "/>
<path style=" stroke:none;fill-rule:nonzero;fill:url(#radial1);" d="M 6.78125 14.015625 L 5.457031 14.015625 L 5.457031 14.679688 L 6.78125 14.679688 Z M 6.78125 14.015625 "/>
<path style=" stroke:none;fill-rule:nonzero;fill:url(#radial2);" d="M 6.78125 14.015625 L 5.457031 14.015625 L 5.457031 13.355469 L 6.78125 13.355469 Z M 6.78125 14.015625 "/>
<path style=" stroke:none;fill-rule:nonzero;fill:url(#radial3);" d="M 9.097656 14.015625 L 10.417969 14.015625 L 10.417969 14.679688 L 9.097656 14.679688 Z M 9.097656 14.015625 "/>
<path style=" stroke:none;fill-rule:nonzero;fill:url(#linear0);" d="M 6.78125 13.851562 L 9.097656 13.851562 L 9.097656 14.679688 L 6.78125 14.679688 Z M 6.78125 13.851562 "/>
<path style="fill-rule:nonzero;fill:url(#linear1);stroke-width:3;stroke-linecap:round;stroke-linejoin:miter;stroke:rgb(20%,20%,20%);stroke-opacity:1;stroke-miterlimit:4;" d="M 254 -168.664993 C 365.125 -168.664993 455.125 -78.664993 455.125 32.460007 C 455.125 143.460007 365.125 233.460007 254 233.460007 C 143 233.460007 52.875 143.460007 52.875 32.460007 C 52.875 -78.664993 143 -168.664993 254 -168.664993 Z M 254 -168.664993 " transform="matrix(0.03125,0,0,0.03125,0,6.72)"/>
<path style=" stroke:none;fill-rule:nonzero;fill:rgb(0%,0%,0%);fill-opacity:0.196;" d="M 7.9375 14.015625 C 6.269531 14.019531 4.667969 13.359375 3.488281 12.179688 C 2.308594 11.003906 1.648438 9.402344 1.652344 7.734375 L 1.652344 7.671875 C 1.679688 11.121094 4.488281 13.902344 7.9375 13.894531 C 11.386719 13.902344 14.195312 11.121094 14.222656 7.671875 L 14.222656 7.734375 C 14.226562 9.402344 13.566406 11.003906 12.386719 12.179688 C 11.207031 13.359375 9.605469 14.019531 7.9375 14.015625 Z M 7.9375 14.015625 "/>
<path style=" stroke:none;fill-rule:nonzero;fill:rgb(100%,100%,100%);fill-opacity:0.392;" d="M 7.9375 1.449219 C 6.269531 1.445312 4.667969 2.105469 3.488281 3.285156 C 2.308594 4.464844 1.648438 6.066406 1.652344 7.734375 L 1.652344 7.792969 C 1.679688 4.34375 4.488281 1.5625 7.9375 1.570312 C 11.386719 1.5625 14.195312 4.34375 14.222656 7.792969 L 14.222656 7.734375 C 14.226562 6.066406 13.566406 4.464844 12.386719 3.285156 C 11.207031 2.105469 9.605469 1.445312 7.9375 1.449219 Z M 7.9375 1.449219 "/>
<path style=" stroke:none;fill-rule:nonzero;fill:rgb(12.941177%,12.941177%,12.941177%);fill-opacity:1;" d="M 7.9375 1.402344 C 6.257812 1.398438 4.644531 2.0625 3.457031 3.253906 C 2.265625 4.441406 1.601562 6.054688 1.605469 7.734375 C 1.601562 9.414062 2.269531 11.027344 3.457031 12.214844 C 4.644531 13.402344 6.257812 14.066406 7.9375 14.0625 C 9.617188 14.066406 11.230469 13.402344 12.417969 12.214844 C 13.605469 11.027344 14.273438 9.414062 14.269531 7.734375 C 14.273438 6.054688 13.609375 4.441406 12.417969 3.253906 C 11.230469 2.0625 9.617188 1.398438 7.9375 1.402344 Z M 7.9375 1.496094 C 9.59375 1.492188 11.183594 2.148438 12.351562 3.320312 C 13.523438 4.488281 14.179688 6.078125 14.175781 7.734375 C 14.179688 9.390625 13.523438 10.976562 12.351562 12.148438 C 11.179688 13.316406 9.59375 13.972656 7.9375 13.96875 C 6.28125 13.972656 4.695312 13.316406 3.523438 12.148438 C 2.351562 10.976562 1.695312 9.390625 1.699219 7.734375 C 1.695312 6.078125 2.351562 4.488281 3.523438 3.316406 C 4.695312 2.148438 6.28125 1.492188 7.9375 1.496094 Z M 7.9375 1.496094 "/>
</g>
</svg>

<svg xmlns="http://www.w3.org/2000/svg" width="16pt" height="16pt" viewBox="0 0 16 16"><defs><radialGradient id="a" gradientUnits="userSpaceOnUse" cx="450.909" cy="189.579" fx="450.909" fy="189.579" r="21.167" gradientTransform="matrix(0 -.03907 -.07032 0 22.262 31.798)"><stop offset="0" stop-opacity=".314"/><stop offset=".222" stop-opacity=".275"/><stop offset="1" stop-opacity="0"/></radialGradient><radialGradient id="b" gradientUnits="userSpaceOnUse" cx="450.909" cy="189.579" fx="450.909" fy="189.579" r="21.167" gradientTransform="matrix(0 .03907 .07032 0 -6.385 -3.764)"><stop offset="0" stop-opacity=".314"/><stop offset=".222" stop-opacity=".275"/><stop offset="1" stop-opacity="0"/></radialGradient><radialGradient id="c" gradientUnits="userSpaceOnUse" cx="450.909" cy="189.579" fx="450.909" fy="189.579" r="21.167" gradientTransform="matrix(0 -.03907 .07032 0 -6.385 31.798)"><stop offset="0" stop-opacity=".314"/><stop offset=".222" stop-opacity=".275"/><stop offset="1" stop-opacity="0"/></radialGradient><radialGradient id="d" gradientUnits="userSpaceOnUse" cx="450.909" cy="189.579" fx="450.909" fy="189.579" r="21.167" gradientTransform="matrix(0 .03907 -.07032 0 22.262 -3.764)"><stop offset="0" stop-opacity=".314"/><stop offset=".222" stop-opacity=".275"/><stop offset="1" stop-opacity="0"/></radialGradient><linearGradient id="e" gradientUnits="userSpaceOnUse" x1="255.323" y1="233.5" x2="255.323" y2="254.667" gradientTransform="matrix(.00668 0 0 .03125 6.233 6.72)"><stop offset="0" stop-opacity=".275"/><stop offset="1" stop-opacity="0"/></linearGradient><linearGradient id="f" gradientUnits="userSpaceOnUse" x1="275.167" y1="233.5" x2="275.167" y2="-168.667"><stop offset="0" stop-color="#b0bec5"/><stop offset="1" stop-color="#cfd8dc"/></linearGradient></defs><path d="M9.098 14.016h1.32v-.66h-1.32zm0 0" fill="url(#a)"/><path d="M6.781 14.016H5.457v.664h1.324zm0 0" fill="url(#b)"/><path d="M6.781 14.016H5.457v-.66h1.324zm0 0" fill="url(#c)"/><path d="M9.098 14.016h1.32v.664h-1.32zm0 0" fill="url(#d)"/><path d="M6.781 13.852h2.317v.828H6.78zm0 0" fill="url(#e)"/><path d="M253.976-168.63c111.114 0 201.106 89.992 201.106 201.106 0 110.99-89.992 200.981-201.106 200.981-110.99 0-201.106-89.991-201.106-200.98 0-111.115 90.116-201.106 201.106-201.106zm0 0" transform="matrix(.03125 0 0 .03125 0 6.72)" fill="url(#f)" stroke-width="3" stroke-linecap="round" stroke="#333"/><path d="M7.938 14.016a6.27 6.27 0 0 1-6.286-6.282v-.062a6.273 6.273 0 0 0 6.285 6.223 6.27 6.27 0 0 0 6.286-6.223v.062a6.27 6.27 0 0 1-6.286 6.282zm0 0" fill-opacity=".196"/><path d="M7.938 1.45a6.27 6.27 0 0 0-6.286 6.284v.059A6.273 6.273 0 0 1 7.937 1.57a6.27 6.27 0 0 1 6.286 6.223v-.059A6.27 6.27 0 0 0 7.937 1.45zm0 0" fill="#fff" fill-opacity=".392"/><path d="M7.938 1.402a6.318 6.318 0 0 0-6.333 6.332 6.318 6.318 0 0 0 6.332 6.329 6.318 6.318 0 0 0 6.333-6.329 6.318 6.318 0 0 0-6.332-6.332zm0 .094a6.223 6.223 0 0 1 6.238 6.238 6.222 6.222 0 0 1-6.239 6.235A6.222 6.222 0 0 1 1.7 7.734a6.223 6.223 0 0 1 6.239-6.238zm0 0" fill="#212121"/></svg>
